!!!!SEGMENT: pl-gd--ee-1638--007-010_marenzio-luca--il-terzo-libro-de-madrigalia-a-sei-voci-su-l-ampia-fronte.krn
!!!cenid: 15xx:851
!!!COM: Marenzio, Luca
!!!COM-rismID: pe30003955
!!!CDT: ~1553-1599/08/22
!!!CNT: Italian
!!!GTL: Il Terzo Libro de madrigalia a sei voci
!!!OTL: Su l’ampia fronte
!!!OMV: 010
!!!PDT: 1585
!!!AGN:
!!!SMS-siglum: PL-GD
!!!SMS-shelfmark: Ee 1638
!!!SMS-variant:
!!!SMS-altvar:
!!!SMS-shelfwork: 007-010 G
!!!NIFC-rismSourceID: 990039250
!!!NIFC-islandoraID: pl-gd:57883
!!!URL-pdf-islandora: https://repozytorium.nifc.pl/islandora/object/pl-gd%3A57883/datastream/PDF/view
!!!URL-scan: https://polish.musicsources.pl/pl/lokalizacje/galeria/klocki-introligatorskie/655 @EN{Scan on Polish Music Sources Website} @PL{Skany w portalu Dziedzictwo Muzyki Polskiej w otwartym dostępie}
!!!ONB-nifc: UWAGA: zbiór na stronach: Canto: s. 694-704, Alto: s. 542-552, Tenore: s. 390-400, Basso: s. 237-248, Quinto: s. 85-96, Sesto: s. 3-14. Uwaga: utwory podzielone wg tytułów w spisach treści dostępnych na końcu każdej księgi głosowej.
!!!AIN: 1 alto 1 bass 1 quinto 1 sesto 1 soprn 1 tenor
!!!key:
**kern	**text	**kern	**text	**kern	**text	**kern	**text	**kern	**text	**kern	**text
*part6	*part6	*part5	*part5	*part4	*part4	*part3	*part3	*part2	*part2	*part1	*part1
*staff6	*staff6	*staff5	*staff5	*staff4	*staff4	*staff3	*staff3	*staff2	*staff2	*staff1	*staff1
*I"SESTO	*	*I"QUINTO	*	*I"BASSO	*	*I"TENORE	*	*I"ALTO	*	*I"CANTO	*
*I'voce umana 2	*	*I'voce umana 1	*	*I'B	*	*I'T	*	*I'A	*	*I'S	*
*Isesto	*	*Iquinto	*	*Ibass	*	*Itenor	*	*Ialto	*	*Isoprn	*
*ICvox	*	*ICvox	*	*ICvox	*	*ICvox	*	*ICvox	*	*ICvox	*
*IG	*	*	*	*	*	*	*	*	*	*	*
*clefC3	*	*clefG2	*	*clefF3	*	*clefC3	*	*clefC2	*	*clefG2	*
*k[]	*	*k[]	*	*k[]	*	*k[]	*	*k[]	*	*k[]	*
*a:	*	*a:	*	*a:	*	*a:	*	*a:	*	*a:	*
*M2/1	*	*M2/1	*	*M2/1	*	*M2/1	*	*M2/1	*	*M2/1	*
*met(C)	*	*met(C)	*	*met(C)	*	*met(C)	*	*met(C)	*	*met(C)	*
=1-	=1-	=1-	=1-	=1-	=1-	=1-	=1-	=1-	=1-	=1-	=1-
!LO:TX:a:t=Prima parte.	!	!	!	!	!	!	!	!	!	!	!
!	!	!LO:TX:a:t=Prima parte.	!	!	!	!	!	!	!	!	!
!	!	!	!	!LO:TX:a:t=Prima parte.	!	!	!	!	!	!	!
!	!	!	!	!	!	!LO:TX:a:t=Prima parte.	!	!LO:TX:a:t=Prima parte.	!	!	!
!	!	!	!	!	!	!	!	!	!	!LO:TX:a:t=Prima parte.	!
!	!	!	!	!	!	!	!	!	!	!LO:TX:b:t=SV l`ampia	!
1r	.	2r	.	1r	.	1A	SV	1r	.	0r	.
.	.	1a	SV	.	.	.	.	.	.	.	.
1A	SV	.	.	1D	SV	2d\	l`am-	1f#X	SV	.	.
.	.	2dd\	l`am-	.	.	2d\	-pia	.	.	.	.
=2-	=2-	=2-	=2-	=2-	=2-	=2-	=2-	=2-	=2-	=2-	=2-
2B/	l`am-	2dd\	-pia	2G\	l`am-	1d	fron-	2g\	l`am-	1r	.
2B/	-pia	1dd	fron-	2G\	-pia	.	.	2g\	-pia	.	.
1B	fron-	.	.	1G	fron-	1d	-te	1g	fron-	2r	.
.	.	2dd\	-te	.	.	.	.	.	.	4r	.
.	.	.	.	.	.	.	.	.	.	4dd\	Il
=3-	=3-	=3-	=3-	=3-	=3-	=3-	=3-	=3-	=3-	=3-	=3-
!	!	!	!	!	!	!LO:TX:t=P:problem:brakująca pauza?	!	!	!	!	!
1B	-te	2r	.	2G\	-te	4ryy	.	1d	-te	4b\	creſ-
.	.	.	.	.	.	4d\	il	.	.	4.dd\	-p`o-
.	.	4r	.	2G\	Su-	4B/	creſ-	.	.	.	.
.	.	.	.	.	.	.	.	.	.	8cc\	-ro
.	.	4gg\	il	.	.	4.g\	-p`o-	.	.	4b\	lu-
4r	.	4ee\	creſ-	2c\	-l`am-	.	.	4r	.	2cc\	-cen-
.	.	.	.	.	.	8f\	-re	.	.	.	.
4e\	il	4.gg\	-p`o-	.	.	4e\	lu-	4g\	il	.	.
4c\	creſ-	.	.	2c\	-pia	2g\	-cen-	4e/	creſ-	4cc\	-te
.	.	8ff\	-ro	.	.	.	.	.	.	.	.
4.e\	-p`o-	4ee\	lu-	.	.	.	.	4.g\	-p`o-	4gg\	il
=4-	=4-	=4-	=4-	=4-	=4-	=4-	=4-	=4-	=4-	=4-	=4-
.	.	2gg\	-cen-	1c	fron-	2c/	-te	.	.	4ee\	creſ-
8d\	-ro	.	.	.	.	.	.	8fny\	-ro	.	.
4c/	lu-	.	.	.	.	.	.	4e/	lu-	4.gg\	-p`o-
2e\	-cen-	2cc\	-te	.	.	2r	.	2g\	-cen-	.	.
.	.	.	.	.	.	.	.	.	.	8ff\	-ro
!	!	!	!	!	!	!	!	!	!	!LO:SIC:v:t=custos gg	!
.	.	.	.	.	.	.	.	.	.	4ee\	lu-
!	!	!	!	!	!	!	!	!	!	!LO:LB:g=original	!
2e\	-te	4r	.	2c\	-t`il	4r	.	4c/	-te	2gg\	-cen-
!	!	!LO:SIC:v:t=custos ff	!	!	!	!	!	!LO:SIC:v:t=custos c	!	!	!
.	.	4ee\	il	.	.	4g\	il	4e/	il	.	.
!	!	!LO:LB:g=original	!	!	!	!	!	!LO:LB:g=original	!	!	!
2r	.	4ff\	creſ-	4A\	creſ-	4a\	creſ-	4c/	creſ-	2cc\	-te
.	.	4.ee\	-p`o-	4.c\	-p`o-	4.g\	-p`o-	4e/	-p`o-	.	.
=5-	=5-	=5-	=5-	=5-	=5-	=5-	=5-	=5-	=5-	=5-	=5-
1r	.	.	.	.	.	.	.	4e/	-ro	8cc\	Spar-
!	!	!	!	!	!	!LO:SIC:v:t=custos c	!	!	!	!	!
.	.	8dd\	-ro	8B\	-ro	8g\	-ro	.	.	8dd\	.
!	!	!	!	!	!	!LO:LB:g=original	!	!	!	!	!
!	!	!	!	!LO:SIC:v:t=custos G	!	!	!	!	!	!	!
.	.	4cc\	lu-	4A\	lu-	4c/	lu-	4a\	lu-	8ee\	.
!	!	!	!	!LO:LB:g=original	!	!	!	!	!	!	!
.	.	.	.	.	.	.	.	.	.	8ff\	.
.	.	2b/	-cen-	2G\	-cen-	1g	-cen-	2d/	-cen-	1gg	.
8c\	Spar-	2cc\	-te	2C/	-te	.	.	4.g\	-te	.	.
8d\	.	.	.	.	.	.	.	.	.	.	.
8e\	.	.	.	.	.	.	.	.	.	.	.
!LO:SIC:v:t=custos g	!	!	!	!	!	!	!	!	!	!	!
8f\	.	.	.	.	.	.	.	8a\	.	.	.
!LO:LB:g=original	!	!	!	!	!	!	!	!	!	!	!
2g\	.	8g/	Spar-	2r	.	4G/	-te	2b\	.	4gg\	-s`on-
.	.	8a/	.	.	.	.	.	.	.	.	.
.	.	8b/	.	.	.	8G/	Spar-	.	.	4dd\	-deg-
.	.	8cc\	.	.	.	8A/	.	.	.	.	.
=6-	=6-	=6-	=6-	=6-	=6-	=6-	=6-	=6-	=6-	=6-	=6-
4g\	-ſo	2dd\	.	8G\	Spar-	8B/	.	2r	.	4.gg\	-gia-
.	.	.	.	8A\	.	8c/	.	.	.	.	.
8d\	Spar-	.	.	8B\	.	2d\	.	.	.	.	.
8e\	.	.	.	8c\	.	.	.	.	.	16ff\	.
.	.	.	.	.	.	.	.	.	.	16ee\	.
8f\	.	4dd\	ſo	2d\	.	.	.	8d/	Spar-	4.dd\	.
8g\	.	.	.	.	.	.	.	8e\	.	.	.
2a\	-ſo	4a/	on-	.	.	2D/	-s`on-	8f\	.	.	.
.	.	.	.	.	.	.	.	8g\	.	8ee\	.
.	.	4.dd\	-deg-	4d\	ſo	.	.	2a\	.	4.ff\	.
4f\	on-	.	.	4D/	on-	4d\	-deg-	.	.	.	.
.	.	16cc\	-gia-	.	.	.	.	.	.	8ee\	.
.	.	16b/	.	.	.	.	.	.	.	.	.
4a\	-deg-	4.a/	.	4.d\	-deg-	4.f\	-gia-	4f\	-s`on-	8ff\	.
.	.	.	.	.	.	.	.	.	.	8gg\	.
4.f\	gia-	.	.	.	.	.	.	4d/	-deg-	4.aa\	.
.	.	8b/	.	16c\	-gia-	16e\	.	.	.	.	.
.	.	.	.	16B\	.	16d\	.	.	.	.	.
=7-	=7-	=7-	=7-	=7-	=7-	=7-	=7-	=7-	=7-	=7-	=7-
.	.	4.cc\	.	4.A\	.	4.c\	.	4.a\	-gia-	.	.
16e\	.	.	.	.	.	.	.	.	.	16gg\	.
16d\	.	.	.	.	.	.	.	.	.	16ff\	.
4.c\	.	.	.	.	.	.	.	.	.	4.ee\	.
.	.	16b/	.	8B\	.	8d\	.	16g\	.	.	.
.	.	16a/	.	.	.	.	.	16f\	.	.	.
.	.	4.g/	.	4.c\	.	4.e\	.	4.e\	.	.	.
!	!	!	!	!	!	!	!	!	!	!LO:SIC:v:t=custos gg	!
8d\	.	.	.	.	.	.	.	.	.	8ff\	.
!	!	!	!	!	!	!	!	!	!	!LO:LB:g=original	!
4.e\	.	.	.	.	.	.	.	.	.	4.gg\	.
!	!	!LO:SIC:v:t=custos b	!	!	!	!	!	!	!	!	!
.	.	8a/	.	16B\	.	16d\	.	8f#X\	.	.	.
!	!	!LO:LB:g=original	!	!	!	!	!	!	!	!	!
.	.	.	.	16A\	.	16c/	.	.	.	.	.
.	.	4.b#X/	.	4.G\	.	4.B/	.	4g\	.	.	.
16d\	.	.	.	.	.	.	.	.	.	16ff\	.
16c/	.	.	.	.	.	.	.	.	.	16ee\	.
!	!	!	!	!	!	!	!	!LO:SIC:v:t=custos f	!	!	!
4.B/	.	.	.	.	.	.	.	4g\	-va	4.dd\	.
!	!	!	!	!	!	!	!	!LO:LB:g=original	!	!	!
.	.	16a/	.	16F/	.	8c/	.	.	.	.	.
.	.	16g/	.	16E/	.	.	.	.	.	.	.
.	.	4.f/	.	4.D/	.	4.d\	.	4r	.	.	.
8c/	.	.	.	.	.	.	.	.	.	8ee\	.
4.d\	.	.	.	.	.	.	.	4fny\	on-	4.ff\	.
.	.	8g/	.	8E/	.	16c/	.	.	.	.	.
!	!	!	!	!	!	!LO:SIC:v:t=custos A	!	!	!	!	!
.	.	.	.	.	.	16B/	.	.	.	.	.
!	!	!	!	!	!	!LO:LB:g=original	!	!	!	!	!
=8-	=8-	=8-	=8-	=8-	=8-	=8-	=8-	=8-	=8-	=8-	=8-
.	.	1a	.	4.F/	.	1A	.	4f\	-de-	.	.
16c/	.	.	.	.	.	.	.	.	.	8ee\	.
16B/	.	.	.	.	.	.	.	.	.	.	.
4A/	.	.	.	.	.	.	.	4.a\	-gia-	2dd\	.
!	!	!	!	!LO:SIC:v:t=custos A	!	!	!	!	!	!	!
.	.	.	.	8G\	.	.	.	.	.	.	.
!	!	!	!	!LO:LB:g=original	!	!	!	!	!	!	!
2e\	-ua	.	.	2A\	.	.	.	.	.	.	.
.	.	.	.	.	.	.	.	16g\	.	.	.
.	.	.	.	.	.	.	.	16f\	.	.	.
.	.	.	.	.	.	.	.	4e\	.	4cc#X\	.
!LO:SIC:v:t=custos d	!	!	!	!	!	!	!	!	!	!	!
1r	.	1a	-ua	1D	-ua	1A	-ua	1f#X	-ua	1.dd	-ua
!LO:LB:g=original	!	!	!	!	!	!	!	!	!	!	!
=9-	=9-	=9-	=9-	=9-	=9-	=9-	=9-	=9-	=9-	=9-	=9-
2d\	e	4r	.	4r	.	4r	.	4r	.	.	.
.	.	4bny\	e	4G\	e	1r	.	4g\	e	.	.
4B/	de	4dd\	de	4G\	de	.	.	4g\	de	2r	.
4c/	beg-	4cc\	beg-	4A\	beg-	.	.	4e\	be-	.	.
1d	-l`oc-	1b	-l`oc-	1G	-l`oc-	.	.	1g	-gl`oc-	1r	.
.	.	.	.	.	.	4d\	e	.	.	.	.
.	.	.	.	.	.	4B/	de	.	.	.	.
.	.	.	.	.	.	4c/	be-	.	.	.	.
=10-	=10-	=10-	=10-	=10-	=10-	=10-	=10-	=10-	=10-	=10-	=10-
1B	-ch`il	1b	-chi	1G	-ch`il	2d\	-gl`oc-	1g	-ch`il	4r	.
.	.	.	.	.	.	.	.	.	.	4dd\	il
.	.	.	.	.	.	2d\	-ch`il	.	.	8g/	rag-
.	.	.	.	.	.	.	.	.	.	8a/	.
.	.	.	.	.	.	.	.	.	.	8b/	.
.	.	.	.	.	.	.	.	.	.	8ccny\	.
1B	rag-	4r	.	1G	rag-	1d	rag-	1g	rag-	4.dd\	.
.	.	4dd\	il	.	.	.	.	.	.	.	.
.	.	.	.	.	.	.	.	.	.	16ee\	.
.	.	.	.	.	.	.	.	.	.	16ff\	.
.	.	8g/	rag-	.	.	.	.	.	.	4.gg\	.
.	.	8a/	.	.	.	.	.	.	.	.	.
.	.	8b/	.	.	.	.	.	.	.	.	.
.	.	8cc\	.	.	.	.	.	.	.	16ff\	.
!	!	!	!	!	!	!	!	!	!	!LO:SIC:v:t=custos dd	!
.	.	.	.	.	.	.	.	.	.	16ee\	.
!	!	!	!	!	!	!	!	!	!	!LO:LB:g=original	!
=11-	=11-	=11-	=11-	=11-	=11-	=11-	=11-	=11-	=11-	=11-	=11-
0B	-gio	4.dd\	.	0G	-gio	0d	-gio	0g	-gio	8dd\	.
.	.	.	.	.	.	.	.	.	.	8cc\	.
.	.	.	.	.	.	.	.	.	.	8b/	.
.	.	16ee\	.	.	.	.	.	.	.	8a/	.
.	.	16ff\	.	.	.	.	.	.	.	.	.
.	.	4.gg\	.	.	.	.	.	.	.	4g/	.
.	.	.	.	.	.	.	.	.	.	4g/	-gio
.	.	16ff\	.	.	.	.	.	.	.	.	.
!	!	!LO:SIC:v:t=custos dd	!	!	!	!	!	!	!	!	!
.	.	16ee\	.	.	.	.	.	.	.	.	.
!	!	!LO:LB:g=original	!	!	!	!	!	!	!	!	!
.	.	8dd\	.	.	.	.	.	.	.	1r	.
.	.	8cc\	.	.	.	.	.	.	.	.	.
.	.	8b/	.	.	.	.	.	.	.	.	.
.	.	8a/	.	.	.	.	.	.	.	.	.
.	.	4g/	.	.	.	.	.	.	.	.	.
.	.	4g/	-gio	.	.	.	.	.	.	.	.
=12-	=12-	=12-	=12-	=12-	=12-	=12-	=12-	=12-	=12-	=12-	=12-
4r	.	1r	.	4r	.	4r	.	4r	.	4r	.
4.e\	Al	.	.	4.C/	Al	4.c/	Al	4.g\	Al	4.ee\	Al
8e\	ter-	.	.	8C/	ter-	8c/	ter-	8g\	ter-	8ee\	ter-
4e\	-re-	.	.	4C/	-ren-	4c/	-ren-	4g\	-ren-	4ee\	-ren-
4c/	-n`ad-	2r	.	4F/	-`ad	4A/	-`ad	4a\	-`ad	4ff\	-`ad
!	!	!	!	!	!	!	!	!LO:SIC:v:t=custos cc	!	!	!
4d\	-du-	.	.	4D/	duc-	4F/	duc-	4b\	duc-	4ff\	duc-
!	!	!	!	!	!	!	!	!LO:LB:g=original	!	!	!
2e\	-cea	4r	.	2C/	-ea	4G/	-ea	1.cc\	-ea	2ee\	-ea
*	*	*	*	*	*	*	*ij	*	*	*	*
.	.	4.ee\	Al	.	.	4.g\	Al	.	.	.	.
=13-	=13-	=13-	=13-	=13-	=13-	=13-	=13-	=13-	=13-	=13-	=13-
1r	.	.	.	2c\	fio-	.	.	.	.	1r	.
.	.	8ee\	ter-	.	.	8g\	ter-	.	.	.	.
.	.	4ee\	-ren-	.	.	4g\	-ren-	.	.	.	.
.	.	4ff\	-`ad-	8F\	-ri-	4a\	-`ad	.	.	.	.
.	.	.	.	8G\	.	.	.	.	.	.	.
.	.	4ff\	-du-	8A\	.	4a\	duc-	.	.	.	.
!	!	!	!	!LO:SIC:v:t=custos c	!	!	!	!	!	!	!
.	.	.	.	8B\	.	.	.	.	.	.	.
!	!	!	!	!LO:LB:g=original	!	!	!	!	!	!	!
!	!	!	!	!	!	!LO:SIC:v:t=custos e	!	!	!	!	!
2r	.	2ee\	-cea	2c\	.	2g\	-ea	4r	.	4r	.
!	!	!	!	!	!	!LO:LB:g=original	!	!	!	!	!
*	*	*	*	*	*	*	*Xij	*	*	*	*
*	*	*	*	*	*	*	*	*	*ij	*	*ij
.	.	.	.	.	.	.	.	4.g\	Al	4.ee\	Al
4r	.	2r	.	2C/	-to	4r	.	.	.	.	.
.	.	.	.	.	.	.	.	8g\	ter-	8ee\	ter-
4c/	fio-	.	.	.	.	4e\	fio-	4g\	-ren-	4ee\	-ren-
=14-	=14-	=14-	=14-	=14-	=14-	=14-	=14-	=14-	=14-	=14-	=14-
8F/	-ri-	4r	.	2F/	Mag-	8A/	-ri-	4a\	-`ad	4ff\	-`ad
8G/	.	.	.	.	.	8B/	.	.	.	.	.
8A/	.	4cc\	fio-	.	.	8c/	.	4a\	duc-	4ff\	duc-
8B/	.	.	.	.	.	8d\	.	.	.	.	.
1c	.	8cc\	-ri-	2C/	-gio	1e	.	2g\	-ea	2ee\	-ea
*	*	*	*	*	*	*	*	*	*Xij	*	*Xij
.	.	8dd\	.	.	.	.	.	.	.	.	.
.	.	8ee\	.	.	.	.	.	.	.	.	.
.	.	8ff\	.	.	.	.	.	.	.	.	.
.	.	4gg\	.	1r	.	.	.	4r	.	4r	.
.	.	4ee\	to	.	.	.	.	4g\	fio-	4cc\	fio-
!LO:SIC:v:t=custos e	!	!	!	!	!	!	!	!	!	!	!
2A/	-to	4.ee\	Mag-	.	.	2e\	-to	4.cc\	-ri-	8cc\	-ri-
!LO:LB:g=original	!	!	!	!	!	!	!	!	!	!	!
.	.	.	.	.	.	.	.	.	.	8dd\	.
.	.	.	.	.	.	.	.	.	.	8ee\	.
!	!	!	!	!	!	!	!	!	!	!LO:SIC:v:t=custos gg	!
.	.	16dd\	.	.	.	.	.	16b\	.	8ff\	.
!	!	!LO:SIC:v:t=custos b	!	!	!	!	!	!	!	!LO:LB:g=original	!
.	.	16cc\	.	.	.	.	.	16a\	.	.	.
!	!	!LO:LB:g=original	!	!	!	!	!	!	!	!	!
=15-	=15-	=15-	=15-	=15-	=15-	=15-	=15-	=15-	=15-	=15-	=15-
0e	Mag-	4b/	.	0r	.	0r	.	4g\	-to	4gg\	.
.	.	4g/	-gio	.	.	.	.	4c/	Mag-	4ee\	-to
.	.	4.gg\	Mag-	.	.	.	.	8c/	.	4.ee\	Mag-
.	.	.	.	.	.	.	.	8d/	.	.	.
.	.	.	.	.	.	.	.	8e/	.	.	.
.	.	8ff\	.	.	.	.	.	8fny\	.	16dd\	.
.	.	.	.	.	.	.	.	.	.	16cc\	.
.	.	1ee	.	.	.	.	.	4g\	.	4b/	.
.	.	.	.	.	.	.	.	2a\	.	4a/	.
.	.	.	.	.	.	.	.	.	.	2b/	.
.	.	.	.	.	.	.	.	4g#X\	.	.	.
=16-	=16-	=16-	=16-	=16-	=16-	=16-	=16-	=16-	=16-	=16-	=16-
!	!	!	!	!	!	!	!	!LO:SIC:v:t=custos a	!	!	!
1A	-gio	1ee	-gio	0r	.	0r	.	1a	-gio	1cc#X	-gio
!	!	!	!	!	!	!	!	!LO:LB:g=original	!	!	!
4d\	E	4ff#X\	E	.	.	.	.	4a\	e	4dd\	e
2d\	Lug-	2ff#\	Lug-	.	.	.	.	2a\	Lug-	2dd\	Lug-
4G/	-l`ai	4gg\	-l`ai	.	.	.	.	4b\	-l`ai	4dd\	-lio
=17-	=17-	=17-	=17-	=17-	=17-	=17-	=17-	=17-	=17-	=17-	=17-
2c/	co-	2gg\	co-	0r	.	0r	.	1cc	co-	2ee\	co-
4.c/	-rio-	2gg\	-ri	.	.	.	.	.	.	2ee\	-ri
8d\	-lera	.	.	.	.	.	.	.	.	.	.
4e\	mi-	4r	.	.	.	.	.	4.cc\	-ri	4r	.
2f\	-ſu-	4.cc\	ol-	.	.	.	.	.	.	4.a/	ol-
.	.	.	.	.	.	.	.	8b\	ol-	.	.
.	.	.	.	.	.	.	.	4a\	-tra	.	.
.	.	8dd\	-tra	.	.	.	.	.	.	8b/	-tra
4c/	-r`ar-	4ee\	mi-	.	.	.	.	4gny\	mi-	4ccny\	mi-
=18-	=18-	=18-	=18-	=18-	=18-	=18-	=18-	=18-	=18-	=18-	=18-
1d	-den-	4a/	-ſur-	1r	.	1r	.	4f#X\	-ſur-	4cc\	-ſur-
.	.	4dd\	-`ar-	.	.	.	.	2g\	-`ar-	4b/	-`ar-
.	.	2dd\	-den-	.	.	.	.	.	.	2a/	-den-
.	.	.	.	.	.	.	.	4f#X\	-den-	.	.
1G	-te	1dd	-te	2r	.	1d	Nel	1g	-te	1b	-te
.	.	.	.	1G\	Nel	.	.	.	.	.	.
=19-	=19-	=19-	=19-	=19-	=19-	=19-	=19-	=19-	=19-	=19-	=19-
!	!	!	!	!	!	!	!	!	!	!LO:SIC:v:t=custos b	!
2d\	Nel	4r	.	.	.	1B	bian-	4r	.	2b/	Nel
!	!	!LO:SIC:v:t=custos ee	!	!	!	!	!	!	!	!LO:LB:g=original	!
.	.	4b/	Nel	.	.	.	.	4g\	Nel	.	.
!	!	!LO:LB:g=original	!	!	!	!	!	!	!	!	!
1e	bian-	1ee	bian-	1E	bian-	.	.	1g#X	bian-	1b	bian-
.	.	.	.	.	.	2B/	-co	.	.	.	.
2B/	-co	2ee\	-co	2E/	-co	1e\	ſe-	2g#\	-co	2b/	-co
=20-	=20-	=20-	=20-	=20-	=20-	=20-	=20-	=20-	=20-	=20-	=20-
2r	.	1ee	ſe-	1A	ſe-	.	.	1a	ſe-	1cc#X	ſe-
2e\	ſe-	.	.	.	.	2A/	-no	.	.	.	.
2d\	-no	2ff#X\	-no	2D/	-no	4r	.	2a\	-no	2dd\	-no
.	.	.	.	.	.	4A/	A-	.	.	.	.
4r	.	4r	.	4r	.	2d\	-mor	4r	.	4r	.
4d\	A-	4ff#X\	A-	4D/	A-	.	.	4a\	A-	4dd\	A-
=21-	=21-	=21-	=21-	=21-	=21-	=21-	=21-	=21-	=21-	=21-	=21-
!LO:SIC:v:t=custos g	!	!	!	!	!	!	!	!LO:SIC:v:t=custos g	!	!	!
1d	-mor	1gg	-mor	1G	-mor	4r	.	1b	-mor	1dd	-mor
!LO:LB:g=original	!	!	!	!	!	!	!	!LO:LB:g=original	!	!	!
*	*	*	*	*	*	*	*ij	*	*	*	*
.	.	.	.	.	.	4G/	A-	.	.	.	.
.	.	.	.	.	.	2d\	-mor	.	.	.	.
*	*	*	*	*	*	*	*Xij	*	*	*	*
4r	.	1r	.	1r	.	1r	.	1r	.	2g/	veZ-
4g\	veZ-	.	.	.	.	.	.	.	.	.	.
4e\	-Zo-	.	.	.	.	.	.	.	.	4ccny\	-zo-
4f#X\	-la-	.	.	.	.	.	.	.	.	4a/	-ſa-
=22-	=22-	=22-	=22-	=22-	=22-	=22-	=22-	=22-	=22-	=22-	=22-
4g\	-men-	4r	.	1r	.	0r	.	4r	.	4b/	-men-
4G/	-te	4gg\	VeZ-	.	.	.	.	4gny\	veZ-	8b/	-te
.	.	.	.	.	.	.	.	.	.	8g/	Scher-
2r	.	4ee\	-Zo-	.	.	.	.	4cc\	-zo-	2a/	-Za-
.	.	4ff#X\	-ſa-	.	.	.	.	4a\	-ſa-	.	.
4r	.	4gg\	-men-	2r	.	.	.	4b\	-men-	4g/	-na
4g\	Scher-	4dd\	-te	.	.	.	.	8b\	-te	4gg\	veZ-
.	.	.	.	.	.	.	.	8g\	veZ-	.	.
2a\	-Za-	2r	.	4r	.	.	.	4cc\	-Zo-	4ee\	-Zo-
.	.	.	.	4D/	A-	.	.	4a\	-ſa-	4ff#X\	-ſa-
=23-	=23-	=23-	=23-	=23-	=23-	=23-	=23-	=23-	=23-	=23-	=23-
2g\	-na	4r	.	2G\	-mor	4r	.	4b\	-men-	4gg\	-men-
!	!	!	!	!	!	!LO:SIC:v:t=custos a	!	!	!	!	!
.	.	4g/	VeZ-	.	.	4a\	Scher-	4b\	-te	8dd\	-te
!	!	!	!	!	!	!LO:LB:g=original	!	!	!	!	!
.	.	.	.	.	.	.	.	.	.	8gg\	Scher-
!	!	!	!	!	!	!	!	!	!	!LO:SIC:v:t=custos gg	!
2r	.	4cc\	-Zo-	4r	.	2a\	-Za-	2r	.	2ff#X\	-Za-
!	!	!	!	!	!	!	!	!	!	!LO:LB:g=original	!
*	*	*	*	*	*ij	*	*	*	*	*	*
.	.	4a/	-ſa-	4D/	A-	.	.	.	.	.	.
!	!	!	!	!LO:SIC:v:t=custos D	!	!	!	!	!	!	!
1r	.	4b/	-men-	2G\	-mor	2g\	-na	4r	.	4gg\	-na
!	!	!	!	!LO:LB:g=original	!	!	!	!	!	!	!
*	*	*	*	*	*Xij	*	*	*	*	*	*
.	.	8g/	-te	.	.	.	.	4g\	Scher-	4dd\	veZ-
.	.	8gg\	Scher-	.	.	.	.	.	.	.	.
!	!	!LO:SIC:v:t=custos gg	!	!	!	!	!	!	!	!	!
.	.	2ff#X\	-Za-	4r	.	2r	.	2a\	-Za-	4cc\	-Zo-
!	!	!LO:LB:g=original	!	!	!	!	!	!	!	!	!
*	*	*	*	*	*ij	*	*	*	*	*	*
.	.	.	.	4D/	A-	.	.	.	.	4a/	-ſa-
=24-	=24-	=24-	=24-	=24-	=24-	=24-	=24-	=24-	=24-	=24-	=24-
4r	.	4gg\	-na	2G\	-mor	4r	.	2g\	-na	4b/	-men-
*	*	*	*	*	*Xij	*	*ij	*	*	*	*
4G/	Scher-	4dd\	ſcher-	.	.	4g\	Scher-	.	.	8g/	-te
.	.	.	.	.	.	.	.	.	.	8gg\	ſcher-
2d\	-za-	2dd\	-za-	2r	.	2a\	-Za-	2r	.	2ff#X\	-Za-
2G/	-na	2dd\	-na	2r	.	1g	-na	2r	.	2gg\	-na
*	*	*	*	*	*	*	*Xij	*	*	*	*
4r	.	4r	.	2.G\	e	.	.	2.g\	e	4r	.
2d\	e	2b/	e	.	.	.	.	.	.	2dd\	e
=25-	=25-	=25-	=25-	=25-	=25-	=25-	=25-	=25-	=25-	=25-	=25-
.	.	.	.	.	.	2r	.	.	.	.	.
4d\	non	4b/	non	4G\	non	.	.	4g\	non	4dd\	non
2B/	ar-	2b\	ar-	2G\	ar-	2.G/	e	2g\	ar-	2dd\	ar-
1e	-dia	1cc	-dia	1C	-dia	.	.	1g	-dia	1ee	-dia
.	.	.	.	.	.	4G/	non	.	.	.	.
.	.	.	.	.	.	2G/	ar-	.	.	.	.
=26-	=26-	=26-	=26-	=26-	=26-	=26-	=26-	=26-	=26-	=26-	=26-
2e\	di	2cc\	di	2C/	di	4c/	-dia	2g\	di	2ee\	di
.	.	.	.	.	.	4c/	di	.	.	.	.
!LO:SIC:v:t=custos A	!	!	!	!	!	!	!	!	!	!	!
!	!	!	!	!	!	!	!	!LO:SIC:v:t=custos a	!	!	!
2c/	far-	1cc	far-	1F	far-	1A	far-	1a	far-	1ffny	far-
!LO:LB:g=original	!	!	!	!	!	!	!	!LO:LB:g=original	!	!	!
2.A/	-gl`ol	.	.	.	.	.	.	.	.	.	.
.	.	2dd\	-gl`ol	2D/	-gl`ol	2d\	-gl`ol	2a\	-gl`ol-	2ff\	-gl`ol-
4B/	.	.	.	.	.	.	.	.	.	.	.
=27-	=27-	=27-	=27-	=27-	=27-	=27-	=27-	=27-	=27-	=27-	=27-
2c/	.	1cc	trag-	1A	trag-	1e	trag-	1a	-trag-	1ee	-trag-
2A/	trag-	.	.	.	.	.	.	.	.	.	.
1B	-gio	1b	-gio	1E	-gio	1e	-gio	1g#X	-gio	1ee	-gio
=28-	=28-	=28-	=28-	=28-	=28-	=28-	=28-	=28-	=28-	=28-	=28-
4c/	E	0r	.	4A\	e	4e\	e	4a\	e	0r	.
2c/	l`au-	.	.	2A\	l`au-	2e\	l`au-	2a\	l`au-	.	.
4d\	-ra	.	.	4G\	-ra	4g\	-ra	4b\	-ra	.	.
4.e\	del	.	.	4.c\	del	4.g\	del	4.cc\	del	.	.
!	!	!	!	!	!	!LO:SIC:v:t=custos g	!	!	!	!	!
8e\	par-	.	.	8c\	par-	8g\	par-	8cc\	par-	.	.
!	!	!	!	!	!	!LO:LB:g=original	!	!	!	!	!
4e\	-lar	.	.	4c\	-lar	4g\	-lar	4cc\	-lar	.	.
!	!	!	!	!LO:SIC:v:t=custos B-	!	!	!	!	!	!	!
4d\	cor-	.	.	4d\	cor-	4f\	cor-	4a\	cor-	.	.
!	!	!	!	!LO:LB:g=original	!	!	!	!	!	!	!
=29-	=29-	=29-	=29-	=29-	=29-	=29-	=29-	=29-	=29-	=29-	=29-
4d\	-te-	1r	.	4B-X\	-te-	4f\	-te-	4b-X\	-te-	1r	.
4fny\	-ſe	.	.	4F\	-ſe e	4a\	-ſe e	4cc\	-ſe e	.	.
2e\	e ſag-	.	.	2c\	ſag-	2g\	ſag-	2cc\	ſag-	.	.
0f	-gio	2r	.	0F	-gio	0a	-gio	1cc	-gio	2r	.
.	.	4f/	Frà	.	.	.	.	.	.	4a/	Frà
!	!	!	!	!	!	!	!	!	!	!LO:SIC:v:t=custos cc	!
.	.	4g/	le	.	.	.	.	.	.	4b/	le
!	!	!	!	!	!	!	!	!	!	!LO:LB:g=original	!
=30-	=30-	=30-	=30-	=30-	=30-	=30-	=30-	=30-	=30-	=30-	=30-
.	.	2a/	ro-	.	.	.	.	1r	.	2cc\	ro-
.	.	4a/	-ſe	.	.	.	.	.	.	4cc\	-ſe
!	!	!LO:SIC:v:t=custos cc	!	!	!	!	!	!	!	!	!
.	.	4b/	ſpi-	.	.	.	.	.	.	4dd\	ſpi-
!	!	!LO:LB:g=original	!	!	!	!	!	!	!	!	!
4e\	Frà	1cc	-rar	4c\	Frà	2r	.	2r	.	1ee	-rar
4d\	le	.	.	4Bny\	le	.	.	.	.	.	.
2c/	ro-	.	.	2A\	ro-	4e\	Frà	4cc\	Frà	.	.
.	.	.	.	.	.	4d\	le	4bny\	le	.	.
=31-	=31-	=31-	=31-	=31-	=31-	=31-	=31-	=31-	=31-	=31-	=31-
4c/	-ſe	2r	.	4A\	-ſe	2c/	ro-	1a	ro-	2r	.
!LO:SIC:v:t=custos A	!	!	!	!	!	!	!	!	!	!	!
4B/	ſpi-	.	.	4G\	ſpi-	.	.	.	.	.	.
!LO:LB:g=original	!	!	!	!	!	!	!	!	!	!	!
*	*	*	*	*	*	*	*	*	*	*	*ij
2A/	-rar	4a/	Frà	2F/	-rar	4f\	-ſe	.	.	4cc\	Frà
.	.	4b/	le	.	.	4f\	ſpi-	.	.	4dd\	le
2r	.	2cc\	ro-	1C	ſo-	1e	-rar	4gny\	-ſe	2ee\	ro-
!	!	!	!	!	!	!	!	!LO:SIC:v:t=custos e	!	!	!
.	.	.	.	.	.	.	.	4fny\	ſpi-	.	.
!	!	!	!	!	!	!	!	!LO:LB:g=original	!	!	!
2g\	s`u-	4cc\	-ſe	.	.	.	.	2e/	-rar	4ee\	-ſe
.	.	4dd\	ſpi-	.	.	.	.	.	.	4ff\	ſpi-
=32-	=32-	=32-	=32-	=32-	=32-	=32-	=32-	=32-	=32-	=32-	=32-
2e\	-dia	2ee\	-rar	2C/	-ven-	2r	.	4r	.	2gg\	-rar
*	*	*	*	*	*	*	*	*	*	*	*Xij
.	.	.	.	.	.	.	.	4c/	s`u-	.	.
2d\	ſo-	2gg\	s`u-	2BB/	.	4r	.	2.g\	-dia	2dd\	s`u-
.	.	.	.	.	.	4B/	s`u-	.	.	.	.
4.c\	-ven-	2gg\	-dia	2.C/	.	2.e\	-dia	.	.	2ee\	-dia
.	.	.	.	.	.	.	.	4e/	ſo-	.	.
8d\	.	.	.	.	.	.	.	.	.	.	.
2.e\	.	2ee\	ſo-	.	.	.	.	2.a\	-ven-	2cc\	ſo-
.	.	.	.	4D/	.	4A/	ſo-	.	.	.	.
=33-	=33-	=33-	=33-	=33-	=33-	=33-	=33-	=33-	=33-	=33-	=33-
.	.	1ee	-ven-	1E	.	1e	-ven-	.	.	1b	-ven-
8d\	.	.	.	.	.	.	.	8g#X\	.	.	.
8c\	.	.	.	.	.	.	.	8f#X\	.	.	.
2B/	.	.	.	.	.	.	.	2g#X\	.	.	.
0.A	-te.	0.ee	-te.	0.AA	-te.	0.e	-te.	0.a	-te.	0.cc#X	-te.
=34-	=34-	=34-	=34-	=34-	=34-	=34-	=34-	=34-	=34-	=34-	=34-
.	.	.	.	.	.	.	.	.	.	.	.
=-	=-	=-	=-	=-	=-	=-	=-	=-	=-	=-	=-
*-	*-	*-	*-	*-	*-	*-	*-	*-	*-	*-	*-
!!!system-decoration: [(s1,s2,s3,s4,s5,s6)]
!!!ENC: Filip Voros
!!!END: 2022-06-12
!!!ENC: Julita Ruszuk
!!!END: 2022-07-23
!!!YEC: Copyright 2022 Narodowy Instytut Fryderyka Chopina (https://polishscores.org)
!!!YEM: Licence CC BY 4.0 (https://creativecommons.org/licenses/by/4.0)
